X: 837
T: Little Katie Kearney
C: anon.
O: Ireland
B: Francis O'Neill: "The Dance Music of Ireland" (1907) no. 753
R: Reel
Z: Transcribed by Frank Nordberg - http://www.musicaviva.com
F: http://www.musicaviva.com/abc/tunes/ireland/oneill-1001/oneill-1001-075
3.abc
m: Tn2 = (3n/o/n/ m/n/
M: C|
L: 1/8
K: Amix
(ed)|(c<A)AG (EA)AB|(cA)Ac Tf2ed|(c<A)AG EAAB|(dB)(GB) d2:|(ed)|cBcd efed
|
cBcd (ea)a2|cBcd efge|dBGB d2(ed)|cBcd efed|cBcd eaab|c'abg afge|(dB)(GB)
 d2|]
W:
W:
W: From Musica Viva - http://www.musicaviva.com
W: the Internet center for free sheet music downloads.


